X:1
T:The Emperor of the Moon
T:The Emperor of the Moon
T:Richard Morley 1688
C:Richard Morley 1688
L:1/8
M:4/4
K:Emin
V:1 treble 
V:1
 E2 B2 E2 B2 | E2 B2 G2 FG | E2 e2 E2 e2 | E2 e2 d2 ^cd | G2 d2 G2 d2 | G2 e2 F2 ED | E2 FG A2 GF | %7
 F4 E4 | E2 B2 E2 B2 | E2 B2 G2 FG | E2 e2 E2 e2 | E2 e2 d2 ^cd | G2 d2 G2 d2 | G2 e2 F2 ED | %14
 E2 FG A2 GF | F4 E4 | E2 e2 E2 e2 | E2 e2 E2 e2 | G2 g2 G2 g2 | G2 g2 G2 g2 | B2 d2 B2 d2 | %21
 B2 d2 B2 AG | A2 AB B2 e2 | ^d4 e4 | E2 e2 E2 e2 | E2 e2 E2 e2 | G2 g2 G2 g2 | G2 g2 G2 g2 | %28
 B2 d2 B2 d2 | B2 d2 B2 AG | A2 AB B2 e2 | ^d4 e4 || %32

